packages/tokens/icons/medal/size24Px.svg

<svg viewBox="0 0 24 24" fill="none" xmlns="http://www.w3.org/2000/svg" width="1em" height="1em"><path d="M13 14.5L16.4999 20.1245C16.7122 20.4657 17.2198 20.4297 17.3819 20.0621L17.8523 18.9952C17.9403 18.7957 18.1472 18.6763 18.3639 18.6998L19.4842 18.8216C19.8912 18.8659 20.176 18.4291 19.9713 18.0746L16.4641 12" stroke="currentColor"/><path d="M7.28349 12.375L4.16248 18.2182C3.97317 18.5727 4.25811 18.9943 4.65757 18.9509L5.81673 18.8248C6.03339 18.8013 6.24036 18.9207 6.32829 19.1202L6.78294 20.1513C6.94809 20.5259 7.46877 20.5541 7.67345 20.1996L11.1806 14.125" stroke="currentColor"/><circle cx="12" cy="9" r="5.5" stroke="currentColor"/><path d="M12.0001 6.12978L12.6109 7.36753C12.7566 7.66267 13.0382 7.86724 13.3639 7.91457L14.7298 8.11305L13.7414 9.07651C13.5057 9.30625 13.3982 9.63725 13.4538 9.96164L13.6871 11.3221L12.4654 10.6798C12.1741 10.5266 11.826 10.5266 11.5347 10.6798L10.313 11.3221L10.5463 9.96164C10.602 9.63724 10.4944 9.30624 10.2587 9.07651L9.27032 8.11305L10.6363 7.91457C10.962 7.86724 11.2435 7.66267 11.3892 7.36753L10.9408 7.14625L11.3892 7.36753L12.0001 6.12978Z" stroke="currentColor" stroke-linejoin="round"/></svg>

<svg xmlns="http://www.w3.org/2000/svg" fill="none" viewBox="0 0 24 24" width="1em" height="1em"><path stroke="currentColor" d="m13 14.5 3.5 5.625a.5.5 0 0 0 .882-.063l.47-1.067a.5.5 0 0 1 .512-.295l1.12.122a.5.5 0 0 0 .487-.747L16.464 12m-9.181.375-3.12 5.843a.5.5 0 0 0 .495.733l1.159-.126a.5.5 0 0 1 .511.295l.455 1.031a.5.5 0 0 0 .89.049l3.508-6.075"/><circle cx="12" cy="9" r="5.5" stroke="currentColor"/><path stroke="currentColor" stroke-linejoin="round" d="m12 6.13.61 1.238a1 1 0 0 0 .754.547l1.366.198-.989.964a1 1 0 0 0-.287.885l.233 1.36-1.222-.642a1 1 0 0 0-.93 0l-1.222.642.233-1.36a1 1 0 0 0-.287-.885l-.989-.964 1.366-.198a1 1 0 0 0 .753-.547l-.448-.222.448.222L12 6.13Z"/></svg>
